X: 1
T: Portland, The
M: 4/4
L: 1/8
R: hornpipe
K: Ador
|:A>G|(3EFG A>B c>Bc>d|e>d (3dBG g2 a>b|a>gg>e d>BG>A|(3BcB A>G G>ED>G|
(3EFG A>B c>Bc>d|e>d (3dBG g2 a>c'|b>ag>e d>Bg>G|B>AA>^G A2:|
|:A/B/c/d/|e>^de>c A>ce>c|d>B (3GAB d2 e>d|c>AE>A c>AE>d|B>GD>G B2 A/B/c/d/|
e>^de>c A>ce>g|d>g (3FGA B2 e>d|c>Ae>A B>Gd>B|1 B>AA>^G A2:|2 B>AA>^G (A2||
|:A)>B|c>ea>e c>ea>e|d>B (3GAB d2 e>d|c>AE>A c>AE>A|B>Gd>G e>Gf>G|
c>ea>e c>ea>e|d>B (3GAB d2 e>d|c>ea>e B>dg>d|1 B>AA>^G A2-:|2 B>AA>^G A2||
